src/24/actions/gnumeric-format-precision-decrease.svg

<svg xmlns="http://www.w3.org/2000/svg" viewBox="0 0 24 24">
  <defs id="defs3051">
    <style type="text/css" id="current-color-scheme">
      .ColorScheme-Text {
        color:#5d656b;
      }
      </style>
  </defs>
 <path 
     style="fill:#b3b3b3" 
     d="M 17.5 4 C 15.567003 4 14 5.7909 14 8 L 14 9 L 14 11 C 14 13.2091 15.567003 15 17.5 15 C 19.432997 15 21 13.2091 21 11 L 21 9 L 21 8 C 21 5.7909 19.432997 4 17.5 4 z M 17.5 5 C 18.880712 5 20 6.3431 20 8 L 20 11 C 20 12.6569 18.880712 14 17.5 14 C 16.119288 14 15 12.6569 15 11 L 15 8 C 15 6.3431 16.119288 5 17.5 5 z "
     />
 <path 
     style="fill:#da4453" 
     d="M 16.085938 16 L 15.378906 16.707031 L 16.792969 18.121094 L 15.378906 19.535156 L 16.085938 20.242188 L 17.5 18.828125 L 18.914062 20.242188 L 19.621094 19.535156 L 18.207031 18.121094 L 19.621094 16.707031 L 18.914062 16 L 17.5 17.414062 L 16.085938 16 z "
     />
 <path style="fill:currentColor;fill-opacity:1;stroke:none" 
     d="M 9.5 4 C 7.567003 4 6 5.7909 6 8 L 6 9 L 6 11 C 6 13.2091 7.567003 15 9.5 15 C 11.432997 15 13 13.2091 13 11 L 13 9 L 13 8 C 13 5.7909 11.432997 4 9.5 4 z M 9.5 5 C 10.880712 5 12 6.3431458 12 8 L 12 11 C 12 12.656854 10.880712 14 9.5 14 C 8.1192881 14 7 12.656854 7 11 L 7 8 C 7 6.3431458 8.1192881 5 9.5 5 z M 4 14 L 4 15 L 5 15 L 5 14 L 4 14 z "
     class="ColorScheme-Text"
     />
</svg>

<svg xmlns="http://www.w3.org/2000/svg" viewBox="0 0 24 24"><path d="M17.5 4C15.567 4 14 5.79 14 8v3c0 2.21 1.567 4 3.5 4s3.5-1.79 3.5-4V8c0-2.21-1.567-4-3.5-4zm0 1C18.88 5 20 6.343 20 8v3c0 1.657-1.12 3-2.5 3S15 12.657 15 11V8c0-1.657 1.12-3 2.5-3z" fill="#b3b3b3"/><path d="M16.086 16l-.707.707 1.414 1.414-1.414 1.414.707.707 1.414-1.414 1.414 1.414.707-.707-1.414-1.414 1.414-1.414-.707-.707-1.414 1.414L16.086 16z" fill="#da4453"/><path d="M9.5 4C7.567 4 6 5.79 6 8v3c0 2.21 1.567 4 3.5 4s3.5-1.79 3.5-4V8c0-2.21-1.567-4-3.5-4zm0 1C10.88 5 12 6.343 12 8v3c0 1.657-1.12 3-2.5 3S7 12.657 7 11V8c0-1.657 1.12-3 2.5-3zM4 14v1h1v-1H4z" fill="currentColor" color="#5d656b"/></svg>
